X:7
T:Hej filidonko
R:sl-polska
S:efter Johan Erik Taklax, Korsn\"as, \"Osterbotten
A:\"Osterbotten
Z:id:hn-sp-7
L:1/16
Q:1/4=130
K:A
a^gaf {fg}f2e2 e2e2|{cd}c2c2 A2cA {Bc}B2^G2|ABA^G A2B2 c2d2|
e2f2 =g{ag}fed {fg}f2e2|e2a2 a^gaf {fg}f2e2|e2e2 {cd}c2c2 A2cA {Bc}B2^G2|
ABA^G A2B2 c2d2|e2f2 =g{ag}fed e4 e4 |:ABcd ef=g2|=g2d2 d2B2 B=GBd|
d2c2 c2c2|Acec Adfd {de}d2B2|B=GBd {de}d2c2|A2ce a^gae dcBA|A^GBG A4 A4:|

